X:1
T:Totenlied Nr. 2
T:Anton Bruckner (1824-1896) Edited by Alexander Reuter
T:Totenlied Nr. 2
T:Copyright © 2016 by CPDL This edition can be fully distributed, duplicated, performed, and recorded 
T:WAB 48
T:Copyright © 2016 by CPDL This edition can be fully distributed, duplicated, performed, and recorded 
C:Anton Bruckner
C:(1824-1896)
C:Edited by Alexander Reuter
Z:Copyright © 2016 by CPDL
Z:This edition can be fully distributed, duplicated, performed, and recorded
%%score [ 1 2 3 4 ]
L:1/8
M:3/4
K:F
V:1 treble nm="Sopran" snm="S."
V:2 treble nm="Alt" snm="A."
V:3 treble-8 transpose=-12 nm="Tenor" snm="T."
V:4 bass nm="Bass" snm="B."
V:1
 x2!p! c | c2 z2 cc | (f2 e2) d2 | c4 B2 | (A2 G2) F2 | (F2 E2)!f! GG | A4 A2 | (A2 gf) (ed) | %8
w: O|ihr, die ihr|heut _ mit|mir zum|Gra- * be|geht, _ und bei|mei- nem|Leich- * * nam _|
 (c2 =B2) c2 | (ed c2) =B2 | c2 z2 z2 | z4 B/d/d/g/ | f2 e2 ee | f3 A A=B | c4!ff! AA | B4 B2 | %16
w: jetzt _ ver-|sam- * * melt|steht,|Hef- tet Sinn und|Her- zen nicht an|die- se Ei- tel-|keit! Sucht nur|Got- tes|
 d4 z f | F4 F2 | F4 E2 | F4 z x |] %20
w: Reich und|die Ge-|rech- tig-|keit.|
V:2
 x2!p! F | F2 z2 FF | F4 F2 | G4 G2 | (F2 D2) D2 | C4!f! EE | F4 G2 | (F2 A2) A2 | G4 G2 | %9
w: O|ihr, die ihr|heut mit|mir zum|Gra- * be|geht, und bei|mei- nem|Leich- * nam|jetzt ver-|
 (A2 G2) G2 | G2 z2 C/E/ G/F/ | F3 E G/B/B | A2 G2 GG | F3 F FF | (F2 E2)!ff! FF | F4 F2 | F4 z2 | %17
w: sam- * melt|steht, Hef- * tet _|eu- ren Sinn _ und|Her- zen nicht an|die- se Ei- tel-|keit! _ Sucht nur|Got- tes|Reich|
 B,2 C2 D2 | C4 C2 | C4 z x |] %20
w: und die Ge-|rech- tig-|keit.|
V:3
 x2!p! A | A2 z2 AA | A4 B2 | (G2 c2) c2 | (c2 B2) A2 | (A2 G2)!f! Gc | c4 ^c2 | d4 f2 | %8
w: O|ihr, die ihr|heut mit|mir * zum|Gra- * be|geht, _ und bei|mei- nem|Leich- nam|
 (e2 d2) c2 | (cd e2) d2 | e2 z2 E/G/ B/A/ | A3 G cc | c2 c2 cc | c3 c dG | G4!ff! FF | %15
w: jetzt _ ver-|sam- * * melt|steht, Hef- * tet _|eu- ren Sinn und|Her- zen nicht an|die- se Ei- tel-|keit! Sucht nur|
 (F2 B2) B2 | B4 z2 | B2 A2 G2 | G4 G2 | A4 z x |] %20
w: Got- * tes|Reich|und die Ge-|rech- tig-|keit.|
V:4
 x2!p! F, | F,2 z2 F,E, | D,4 D,2 | E,4 E,2 | (F,2 B,,2) =B,,2 | C,4!f! C,C, | F,4 =E,2 | D,4 C,2 | %8
w: O|ihr, die ihr|heut mit|mir zum|Gra- * be|geht, und bei|mei- nem|Leich- nam|
 (G,2 F,2) E,2 | (F,2 G,2) G,,2 | C,2 z2 C,C, | C,3 C, C,C, | C,2 C,2 B,,B,, | A,,3 F, D,D, | %14
w: jetzt _ ver-|sam- * melt|steht, Hef- tet|eu- ren Sinn und|Her- zen nicht an|die- se Ei- tel-|
 C,4!ff! F,F, | D,4 D,2 | B,,4 z2 | D,2 C,2 B,,2 | C,4 C,2 | F,,4 z x |] %20
w: keit! Sucht nur|Got- tes|Reich|und die Ge-|rech- tig-|keit.|

